src/lib/packages/icons/src/assets/line/bookmark.svg

<svg width="24" height="24" viewBox="0 0 24 24" fill="none" xmlns="http://www.w3.org/2000/svg">
<path d="M16 2.25H8C5.582 2.25 4.25 3.582 4.25 6V21C4.25 21.268 4.39302 21.5149 4.62402 21.6479C4.74002 21.716 4.87 21.75 5 21.75C5.128 21.75 5.25707 21.717 5.37207 21.651L12 17.863L18.6279 21.65C18.8599 21.783 19.146 21.782 19.376 21.647C19.607 21.513 19.75 21.266 19.75 20.999V5.99902C19.75 3.58202 18.418 2.25 16 2.25ZM18.25 19.707L12.3721 16.349C12.1421 16.217 11.8579 16.217 11.6279 16.349L5.75 19.708V6C5.75 4.423 6.423 3.75 8 3.75H16C17.577 3.75 18.25 4.423 18.25 6V19.707ZM15.75 8C15.75 8.414 15.414 8.75 15 8.75H9C8.586 8.75 8.25 8.414 8.25 8C8.25 7.586 8.586 7.25 9 7.25H15C15.414 7.25 15.75 7.586 15.75 8Z" fill="currentColor"/>
</svg>

<svg xmlns="http://www.w3.org/2000/svg" width="24" height="24" fill="none"><path fill="currentColor" d="M16 2.25H8C5.582 2.25 4.25 3.582 4.25 6v15a.747.747 0 0 0 .75.75.749.749 0 0 0 .372-.099L12 17.863l6.628 3.787a.75.75 0 0 0 1.122-.651v-15c0-2.417-1.332-3.749-3.75-3.749Zm2.25 17.457-5.878-3.358a.749.749 0 0 0-.744 0L5.75 19.708V6c0-1.577.673-2.25 2.25-2.25h8c1.577 0 2.25.673 2.25 2.25v13.707ZM15.75 8a.75.75 0 0 1-.75.75H9a.75.75 0 0 1 0-1.5h6a.75.75 0 0 1 .75.75Z"/></svg>
